src/svg/media-stop-outline.svg

<svg version="1.2" baseProfile="tiny" xmlns="http://www.w3.org/2000/svg" width="24" height="24" viewBox="0 0 24 24"><path d="M16 8v8h-8v-8h8m0-2h-8c-1.1 0-2 .9-2 2v8c0 1.1.9 2 2 2h8c1.1 0 2-.9 2-2v-8c0-1.1-.9-2-2-2z"/></svg>

<?xml version="1.0" encoding="iso-8859-1"?>
<!-- Generator: Adobe Illustrator 16.2.1, SVG Export Plug-In . SVG Version: 6.00 Build 0)  -->
<svg version="1.2" baseProfile="tiny" xmlns="http://www.w3.org/2000/svg" xmlns:xlink="http://www.w3.org/1999/xlink" x="0px"
	 y="0px" width="24px" height="24px" viewBox="0 0 24 24" xml:space="preserve">
<g id="Layer_1">
	<g>
		<path d="M16,8v8H8V8H16 M16,6H8C6.9,6,6,6.9,6,8v8c0,1.1,0.9,2,2,2h8c1.1,0,2-0.9,2-2V8C18,6.9,17.1,6,16,6z"/>
	</g>
</g>
<g id="nyt_x5F_exporter_x5F_info" display="none">
</g>
</svg>
